X: 3779
T: Bishop, The
R: polka
M: 2/4
K: Amajor
|:Aa- ag|f2e2|f/g/a ec|dB AG|
Aa- ag|f2e2|f/g/a B^d|e2e2:|
|:Bd dc/B/|ce ed|ce ac|BE E2|
Ac BA|ea gf|ed cB|A2A2:|

